X: 17
T: Sonata in C major, L.51, K.166
C: Domenico Scarlatti
%%abc-version 2.0
%%abcx-abcm2ps-target-version 5.9.1 (29 Sep 2008)
%%abc-creator hum2abc beta
%%abcx-conversion-date 2021/06/28 10:15:40
%%abc-copyright 2021 Craig Stuart Sapp
%%abc-edited-by Craig Stuart Sapp
%%abc-edited-by Craig Stuart Sapp
%%abcx-initial-encoding-date 2005/06/19/
%%humdrum-veritas 3708137449
%%humdrum-veritas-data 384669230
%%linebreak <none>
%%barnumbers 0
L: 1/4
M: 2/2
N: Derived from L051K166.krn
Q: "Allegro ma non tanto ([half]=88)" 1/2=88
%%staves {1 2}
V: 1 clef=treble
V: 2 clef=bass
K: C
%%postscript /mark1hd {gsave 1 0.2 0.2 setrgbcolor hd grestore}!
%%deco head-m1hd 0 mark1hd 0 0 0 
[V:1] zgef | 
[V:2] [!head-m1hd!C,!head-m1hd!C]zz2 | 
[V:1] g3f/e/ | 
[V:2] z[K:clef=treble]CDE | 
[V:1] {/d/}!trill!d3/c//B// {/c/}!trill!c3/B//c// | 
[V:2] FGAE | 
[V:1] {/d/}!trill!d3/c//B// {/c/}!trill!c3/d//e// | 
[V:2] FGAE | 
[V:1] {/d/}!trill!d3/c//d// {/e/}!trill!e3/d//e// | 
[V:2] FGCC | 
[V:1] {/e/}!trill!f3/e//f// {/g/}!trill!g3/f//g// | 
[V:2] DDEE | 
[V:1] (3a/g/f/ (3e/d/c/B{/c/} !trill!c3//B/8c/8 | 
[V:2] FFGA | 
[V:1] {/c}d3!tenuto!g | 
[V:2] G[K:clef=bass]G,A,B, | 
[V:1] g/e/e2.g | 
[V:2] z.C.C.C | 
[V:1] (3g/^f/e/d2.d | 
[V:2] z.B,.B,.B, | 
[V:1] .d'._b.g.e | 
[V:2] z._B,.B,.B, | 
[V:1] .^c._B.G!tenuto!g | 
[V:2] z.A,.A,!tenuto!^C | 
[V:1] f/e/d2!tenuto!g | 
[V:2] DFG!tenuto!^C | 
[V:1] f/e/d2!tenuto!g | 
[V:2] DFG!tenuto!^C | 
[V:1] fa.f.d | 
[V:2] D2z2 | 
[V:1] .B.G.F!tenuto!f | 
[V:2] zG,A,B, | 
[V:1] e/d/c2!tenuto!f | 
[V:2] CEF!tenuto!B, | 
[V:1] e/d/.c2!tenuto!f | 
[V:2] CEF!tenuto!B, | 
[V:1] eg!trill!g3/^f//e// | 
[V:2] zCEC | 
[V:1] dba!tenuto!c | 
[V:2] zB,C!tenuto!D | 
[V:1] Bg!trill!g3/^f//e// | 
[V:2] zCEC | 
[V:1] dba!tenuto!c | 
[V:2] zB,C!tenuto!D | 
[V:1] B/c/c/d/ e/c/A/^F/ | 
[V:2] .[G,D].[G,D].[G,C].[G,C] | 
[V:1] B/c/c/d/ e/c/A/^F/ | 
[V:2] .[G,D].[G,D].[G,C].[G,C] | 
[V:1] B/c/c/d/ d/e/e/^f/ | 
[V:2] .[G,D].[G,D].[G,C].[G,C] | 
[V:1] g/d/d/B/ e/c/c/A/ | 
[V:2] .[G,B,].[G,B,]CA, | 
[V:1] d/B/B/G<!trill!AG//A// | 
[V:2] B,B,CD | 
[V:1] B/c/c/d/ e/c/A/^F/ | 
[V:2] .[G,D].[G,D].[G,C].[G,C] | 
[V:1] B/c/c/d/ e/c/A/^F/ | 
[V:2] .[G,D].[G,D].[G,C].[G,C] | 
[V:1] B/c/c/d/ d/e/e/^f/ | 
[V:2] .[G,D].[G,D].[G,C].[G,C] | 
[V:1] g/d/d/B/ e/c/c/A/ | 
[V:2] .[G,B,].[G,B,]CA, | 
[V:1] d/B/B/G<!trill!AG//A// | 
[V:2] B,B,CD | 
[V:1] G/g/e/!accent!c/- c/B/B/A/ | 
[V:2] .[G,D].[G,D].[^F,D].[F,D] | 
[V:1] B/b/g/!accent!e/- e/d/d/c/ | 
[V:2] .[G,D].[G,D].[^F,D].[F,D] | 
[V:1] B/d'/b/!accent!g/- g/^f/f/e/ | 
[V:2] .[G,D].[G,D].[A,C].[A,C] | 
[V:1] d/b/e/c'/.b.!mordent!a | 
[V:2] B,C.D.D, | 
[V:1] z/ g/e/c/- c/B/B/A/ | 
[V:2] .[G,D].[G,D].[^F,D].[F,D] | 
[V:1] B/b/g/e/- e/d/d/c/ | 
[V:2] .[G,D].[G,D].[^F,D].[F,D] | 
[V:1] B/d'/b/g/- g/^f/f/e/ | 
[V:2] .[G,D].[G,D].[A,C].[A,C] | 
[V:1] d/b/e/c'/.b.!mordent!a | 
[V:2] B,C.D.D, | 
[V:1] D/d/E/c/.B.!mordent!A | 
[V:2] zC.D.D, | 
[V:1] d/g/G/.e/.B.!mordent!A |[1 
[V:2] B,,C,.D,.D,, | 
[V:1] G/A/G/=F/ E/D/C/B,/ :|]|: 
[V:2] !accent!G,,2z2 :|]|:  
[V:1] GdBc | 
[V:2] !accent!G,,2z2 | 
[V:1] d3e | 
[V:2] zGFE | 
[V:1] !trill!f3/e//d//!trill!e3/d//c// | 
[V:2] DDCC | 
[V:1] !trill!d3/c//B//!trill!c3/d//e// | 
[V:2] B,B,A,A, | 
[V:1] (3f/e/d/ (3c/B/A/^G{/A/} !trill!A3//G/8A/8 | 
[V:2] D,D,E,F, | 
[V:1] B3e | 
[V:2] zE,^F,^G, | 
[V:1] e/c/c2.e | 
[V:2] z.[A,C].[A,C].[A,C] | 
[V:1] e/B/B2.e | 
[V:2] z.[^G,B,].[G,B,].[G,B,] | 
[V:1] (3e/d/c/ (3d/c/B/ (3c/B/A/ (3B/A/G/ | 
[V:2] zA,B,C | 
[V:1] {/G/}!trill!GF2d | 
[V:2] DD,E,F, | 
[V:1] (3d/c/B/ (3c/B/A/ (3B/A/G/ (3A/G/F/ | 
[V:2] zG,A,B, | 
[V:1] {/G/}!trill!FE2.E | 
[V:2] C.C,.C,.C, | 
[V:1] .g.e._B.G | 
[V:2] zC,D,E, | 
[V:1] !accent!^GA2.A | 
[V:2] z.F,.F,.E, | 
[V:1] .a.^f.c.A | 
[V:2] zD,E,^F, | 
[V:1] !accent!AB2!tenuto!g | 
[V:2] zG,A,B, | 
[V:1] g/e/e2.g | 
[V:2] z.[CE].[CE].[CE] | 
[V:1] {/a} (3g/f/e/d2d | 
[V:2] z.[B,D].[B,D].[B,D][K:clef=treble] | 
[V:1] e/f/f/g/ a/f/d/B/ | 
[V:2] .[CG].[CG].[CF].[CF] | 
[V:1] e/f/f/g/ a/f/d/B/ | 
[V:2] .[CG].[CG].[CF].[CF] | 
[V:1] e/f/f/g/ g/a/a/b/ | 
[V:2] .[CG].[CG].[CF].[CF] | 
[V:1] c'/g/g/e/ a/f/f/d/ | 
[V:2] .[CE].[CE][K:clef=bass]F,F, | 
[V:1] g/e/e/c<!trill!dc//B// | 
[V:2] E,E,F,G, | 
[V:1] e/f/f/g/ g/e/_B/G/ | 
[V:2] .[C,G,].[C,G,].[C,G,].[C,G,] | 
[V:1] e/f/f/g/ g/e/_B/G/ | 
[V:2] [C,_B,].[C,B,].[C,B,][C,B,] | 
[V:1] f/g/g/a/ a/f/d/=B/ | 
[V:2] .[C,A,].[C,A,].[C,A,].[C,A,] | 
[V:1] f/g/g/a/ a/f/d/B/ | 
[V:2] [C,=B,].[C,B,].[C,B,].[C,B,] | 
[V:1] c'/g/g/e/ a/f/f/d/ | 
[V:2] [C,C]E,F,D, | 
[V:1] g/e/e/c<!trill!dc//B// | 
[V:2] E,A,F,G, | 
[V:1] c/c'/a/!accent!f/- f/e/e/d/ | 
[V:2] [C,C][C,C][C,=B,-].[C,B,] | 
[V:1] e/c'/f/!accent!d/- d/c/c/B/ | 
[V:2] .[C,C].[C,C].[D,D].[D,D] | 
[V:1] c/g/c/a/.e.!mordent!d | 
[V:2] .[E,C]F,.G,.G,, | 
[V:1] .c/c'/a/!accent!f/- f/e/e/d/ | 
[V:2] .C,[C,C].[C,=B,].[C,B,] | 
[V:1] e/c'/f/!accent!d/- d/c/c/B/ | 
[V:2] .[C,C].[C,C].[D,D].[D,D] | 
[V:1] c/g/c/a/.e.!mordent!d | 
[V:2] [E,C]F,.G,.G,, | 
[V:1] c/g/c/a/.e.!mordent!d | 
[V:2] E,F,.G,.G,, | 
[V:1] c/g/c/c'/.[ce].[Bd] |[1 
[V:2] E,F,.G,.G,, | 
[V:1] c/e/d/c/ B/A/G/^F/ :|][2 
[V:2] !accent!C,,2z2 :|]  
[V:1] !accent!c2z2 |]  
[V:2] !accent!C,,2z2 |]  


